assets/img/floor4.svg

<?xml version="1.0" encoding="utf-8"?>
<!-- Generator: Adobe Illustrator 16.0.0, SVG Export Plug-In . SVG Version: 6.00 Build 0)  -->
<!DOCTYPE svg PUBLIC "-//W3C//DTD SVG 1.1//EN" "http://www.w3.org/Graphics/SVG/1.1/DTD/svg11.dtd">
<svg version="1.1" id="Layer_1" xmlns="http://www.w3.org/2000/svg" xmlns:xlink="http://www.w3.org/1999/xlink" x="0px" y="0px"
	 width="1920px" height="1080px" viewBox="0 0 1920 1080" enable-background="new 0 0 1920 1080" xml:space="preserve">
<g>
	<defs>
		<rect id="SVGID_1_" width="1920" height="1080"/>
	</defs>
	<clipPath id="SVGID_2_">
		<use xlink:href="#SVGID_1_"  overflow="visible"/>
	</clipPath>
	<g clip-path="url(#SVGID_2_)">
		<path fill="#9797FF" d="M-3369.35,925.835c-403.76-46.754-1439.33-60.122-1906.65-60.961V1080h7192V752.5
			c-136.92,128.135-670.33,255.85-1675.621,195.391C-1016.23,872.32-1862.34,943.874-2024.5,960.5S-2864.65,984.276-3369.35,925.835
			z"/>
		<path fill="#7575BF" d="M1348.22,794.046c-4.38-0.673-9.96-10.376-12.2-15.143l8.41-13.04l174.141-16.404l95.91,18.928
			l5.039,40.381c-23.409,9.395-71.76,28.183-77.81,28.183c-7.57,0-8-6.311-9.26-8.413c-1.261-2.104-5.04-1.262-6.73-0.841
			c-1.68,0.42-3.78,8.833-7.149,7.992c-2.69-0.674-3.36,0-3.36,0.42c-0.68,4.375-1.69,5.469-2.11,5.469h-1.68
			c-0.67,0-0.56-4.487-0.42-6.73c0.42-11.777-2.52-8.834-4.21-10.096c-1.68-1.261-5.04,0.421-5.46,3.786
			c-0.34,2.692-0.7,3.365-0.84,3.365c-2.36,1.01-3.23,3.786-3.37,5.048h-2.101c-0.42,0-0.84-2.945-2.949-4.207
			c-1.681-1.009-2.381-3.505-2.521-4.627c-2.1-11.777-7.989-16.825-8.83-23.134c-0.68-5.049-2.25-5.188-2.95-4.628
			c-0.42,1.543-2.189,4.964-5.89,6.31c-4.62,1.683-1.68,6.31-4.2,7.992c-2.02,1.346-2.81,0.561-2.949,0
			c-0.841-9.253-2.521-7.15-5.051-11.777c-2.01-3.702-5.04-10.796-6.31-13.881c-1-6.057-2.94-4.206-3.78-2.524
			c0,1.823-0.76,5.469-3.79,5.469s-3.22,1.963-2.939,2.944c-1.011,6.73-3.23,11.218-4.21,12.619c-0.84,0.42-2.771,1.009-3.78,0
			c-1.01-1.01-4.07-10.796-5.47-15.563c-2.021-2.355-3.931-0.981-4.631,0c-5.89,7.571-15.14,16.825-18.51,19.349
			c-2.689,2.019-7.01,1.963-8.83,1.683c-1.399-0.28-3.779-1.767-2.1-5.468c1.68-3.702,1.54-5.749,1.26-6.31
			c-1.68-1.683-2.1-4.907-2.1-6.31c-0.34-9.086-2.391-8.833-3.37-7.57c-2.24,2.804-7.4,8.833-10.09,10.515
			c-3.37,2.103-3.79,2.103-5.05,0c-1.261-2.104,0-3.785-5.051-5.047c-5.05-1.262-5.05-5.889-6.729-8.413
			c-1.34-2.02-4.771-0.841-6.311,0C1356.49,787.876,1352.59,794.719,1348.22,794.046z"/>
		<path fill="#9797FF" d="M1280.92,903.828c-83.29-1.262-106.84,4.206-141.33,9.254c-19.63,3.649-61.92,11.283-74.029,12.629
			c-12.121,1.346-22.16,33.369-23.561,40.38l874.49-12.619v-20.199c1.12-72.349,7.63-230.772,0.42-233.028
			c-6.73-2.104-22.3-2.524-31.55-2.944H1720.89c-6.05,0-14.02-3.085-17.239-4.628c-7.57-1.262-24.57-3.028-31.971,0
			c-7.399,3.029-18.51,3.506-23.13,3.366l-74.88-1.684c-19.77-1.12-63.17-2.354-78.65,1.684
			c-15.479,4.038-23.279,4.206-25.239,3.785c-28.46,1.822-95.74,7.992-137.13,18.087c-51.73,12.619-53.84,19.349-60.57,22.294
			c-5.38,2.354-9.25,8.833-10.51,11.777c-3.65,7.291-5.551,23.219,15.979,28.603c21.54,5.384,53.28,2.243,66.46,0
			c38.7-10.768,117.641-12.899,152.271-12.619c8.689-0.28,25.909-0.336,25.239,1.684c-0.84,2.523-0.84,1.682-7.149,4.206
			c-5.05,2.019-5.75,4.205-5.47,5.048c0,5.468,12.619,5.047,21.029,5.468c4.49-0.141,16.07,0.589,26.5,4.627
			c10.431,4.038,33.51,5.328,43.74,5.468c2.67,1.542,5.891,5.974-2.52,11.357c-10.521,6.729-55.101,29.863-87.07,35.753
			c-25.57,4.711-70.67,20.61-90.44,29.022c-13.029,5.749-37.43,14.723-53.409,15.564c-17.69,0.931-57.631,8.412-64.78,12.198
			C1296.23,901.388,1285.26,903.407,1280.92,903.828z"/>
	</g>
</g>
</svg>

<svg width="1920" height="1080" viewBox="0 0 1920 1080" fill="none" xmlns="http://www.w3.org/2000/svg">
<g clip-path="url(#clip0_246_456)">
<path d="M-3369.35 925.835C-3773.11 879.081 -4808.68 865.713 -5276 864.874V1080H1916V752.5C1779.08 880.635 1245.67 1008.35 240.379 947.891C-1016.23 872.32 -1862.34 943.874 -2024.5 960.5C-2186.66 977.126 -2864.65 984.276 -3369.35 925.835Z" fill="#C7A1C7"/>
<path d="M1348.22 794.046C1343.84 793.373 1338.26 783.67 1336.02 778.903L1344.43 765.863L1518.57 749.459L1614.48 768.387L1619.52 808.768C1596.11 818.162 1547.76 836.95 1541.71 836.95C1534.14 836.95 1533.71 830.64 1532.45 828.537C1531.19 826.434 1527.41 827.275 1525.72 827.696C1524.04 828.116 1521.94 836.529 1518.57 835.688C1515.88 835.015 1515.21 835.688 1515.21 836.108C1514.53 840.483 1513.52 841.577 1513.1 841.577H1511.42C1510.75 841.577 1510.86 837.09 1511 834.847C1511.42 823.069 1508.48 826.013 1506.79 824.751C1505.11 823.49 1501.75 825.172 1501.33 828.537C1500.99 831.229 1500.63 831.902 1500.49 831.902C1498.13 832.912 1497.26 835.688 1497.12 836.95H1495.02C1494.6 836.95 1494.18 834.005 1492.07 832.743C1490.39 831.734 1489.69 829.238 1489.55 828.116C1487.45 816.339 1481.56 811.291 1480.72 804.982C1480.04 799.934 1478.47 799.794 1477.77 800.355C1477.35 801.897 1475.58 805.318 1471.88 806.664C1467.26 808.347 1470.2 812.974 1467.68 814.656C1465.66 816.002 1464.87 815.217 1464.73 814.656C1463.89 805.403 1462.21 807.506 1459.68 802.879C1457.67 799.177 1454.64 792.083 1453.37 788.998C1452.37 782.941 1450.43 784.792 1449.59 786.474C1449.59 788.297 1448.83 791.942 1445.8 791.942C1442.77 791.942 1442.58 793.905 1442.86 794.887C1441.85 801.617 1439.63 806.104 1438.65 807.506C1437.81 807.926 1435.88 808.515 1434.87 807.506C1433.86 806.496 1430.8 796.71 1429.4 791.942C1427.38 789.587 1425.47 790.961 1424.77 791.942C1418.88 799.514 1409.63 808.768 1406.26 811.291C1403.57 813.31 1399.25 813.254 1397.43 812.974C1396.03 812.693 1393.65 811.207 1395.33 807.506C1397.01 803.804 1396.87 801.757 1396.59 801.196C1394.91 799.514 1394.49 796.289 1394.49 794.887C1394.15 785.801 1392.1 786.054 1391.12 787.316C1388.88 790.12 1383.72 796.149 1381.03 797.831C1377.66 799.934 1377.24 799.934 1375.98 797.831C1374.72 795.728 1375.98 794.046 1370.93 792.784C1365.88 791.522 1365.88 786.895 1364.2 784.371C1362.86 782.352 1359.43 783.53 1357.89 784.371C1356.49 787.876 1352.59 794.719 1348.22 794.046Z" fill="#5F4172"/>
<path d="M1280.92 903.828C1197.63 902.566 1174.08 908.034 1139.59 913.082C1119.96 916.731 1077.67 924.365 1065.56 925.711C1053.44 927.057 1043.4 959.08 1042 966.091L1916.49 953.472V933.272C1917.61 860.924 1924.12 702.5 1916.91 700.244C1910.18 698.141 1894.61 697.72 1885.36 697.3H1720.89C1714.84 697.3 1706.87 694.215 1703.65 692.672C1696.08 691.41 1679.08 689.644 1671.68 692.672C1664.28 695.701 1653.17 696.178 1648.55 696.038L1573.67 694.355C1553.9 693.234 1510.5 692 1495.02 696.038C1479.54 700.076 1471.74 700.244 1469.78 699.823C1441.32 701.646 1374.04 707.815 1332.65 717.91C1280.92 730.529 1278.81 737.259 1272.08 740.204C1266.7 742.559 1262.83 749.037 1261.57 751.981C1257.92 759.272 1256.02 775.2 1277.55 780.584C1299.09 785.968 1330.83 782.827 1344.01 780.584C1382.71 769.816 1461.65 767.685 1496.28 767.965C1504.97 767.685 1522.19 767.629 1521.52 769.648C1520.68 772.172 1520.68 771.33 1514.37 773.854C1509.32 775.873 1508.62 778.06 1508.9 778.902C1508.9 784.37 1521.52 783.949 1529.93 784.37C1534.42 784.23 1546 784.959 1556.43 788.997C1566.86 793.035 1589.94 794.325 1600.17 794.465C1602.84 796.007 1606.06 800.438 1597.65 805.822C1587.13 812.552 1542.55 835.686 1510.58 841.575C1485.01 846.286 1439.91 862.186 1420.14 870.598C1407.11 876.347 1382.71 885.32 1366.73 886.162C1349.04 887.093 1309.1 894.574 1301.95 898.36C1296.23 901.388 1285.26 903.407 1280.92 903.828Z" fill="#C7A1C7"/>
</g>
<defs>
<clipPath id="clip0_246_456">
<rect width="1920" height="1080" fill="white"/>
</clipPath>
</defs>
</svg>
